X:40
T:Swallowtail Jig
M:6/8
L:1/8
Z:abc-transcription Josh Larios <hades@elsewhere.org>, 2014.01.27
K:E dor
|: "Em"GEE BEE | GEG BAG | "D"FDD ADA | dcd AGF |
"Em"GEE BEE | GEG B2 c | "D"dcd AGF |1 "Em"GEE E2F :|2 "Em"GEE E3 |
|: "Em"Bcd e2f | e2f edB | Bcd e2f | edB "D"d2A |
"Em"Bcd e2f | e2f edB |"D"dcd AGF | "Em"GEE E3 :|

